docs/icons/flutter.svg

<svg xmlns="http://www.w3.org/2000/svg" xmlns:xlink="http://www.w3.org/1999/xlink" width="30" height="30" fill="none" xmlns:v="https://vecta.io/nano"><defs><path id="A" d="M0 0h30v30H0z"/><path id="B" d="M0 0h22v22H0z"/></defs><g transform="matrix(1 0 0 1 0 0)"><mask id="D" fill="#fff"><use xlink:href="#A"/></mask><g mask="url(#D)"><g transform="matrix(1 0 0 1 4 4)"><mask id="D" fill="#fff"><use xlink:href="#B"/></mask><g mask="url(#D)" fill-rule="evenodd"><path transform="matrix(1 0 0 1 2.75 1.833333)" d="M0 9.17l2.75 2.75L14.67 0h-5.5L0 9.17zm9.165-.92l-2.29 2.29 2.75 2.75 5.04-5.04h-5.5z" fill="#40c4ff"/><path transform="matrix(1 0 0 1 6.875 12.375)" d="M2.75 5.5L5.5 2.75 2.75 0 0 2.75 2.75 5.5z" fill="#03a9f4"/><g transform="matrix(1 0 0 1 9.625 15.125)"><path d="M2.75 0L0 2.75l2.29 2.29h5.5L2.75 0z" fill="#01579b"/><path d="M4.13 1.38L2.75 0 0 2.75l4.13-1.37z" fill="#084994"/></g></g></g></g></g></svg>

<svg xmlns="http://www.w3.org/2000/svg" xmlns:xlink="http://www.w3.org/1999/xlink" width="30" height="30" viewBox="0 0 30 30" fill="none"><defs><rect id="path_0" x="0" y="0" width="30" height="30" /><rect id="path_1" x="0" y="0" width="22" height="22" /></defs><g opacity="1" transform="translate(0 0)  rotate(0 15 15)"><mask id="bg-mask" fill="white"><use xlink:href="#path_0"></use></mask><g mask="url(#bg-mask)" ><path id="矩形 1" fill-rule="evenodd"  transform="translate(0 0)  rotate(0 15 15)" opacity="1" d="M0,30L30,30L30,0L0,0L0,30Z " /><g opacity="1" transform="translate(4 4)  rotate(0 11 11)"><mask id="bg-mask" fill="white"><use xlink:href="#path_1"></use></mask><g mask="url(#bg-mask)" ><path id="分组 1" fill-rule="evenodd" style="fill:#40C4FF" transform="translate(2.75 1.8333333261718745)  rotate(0 7.3333333369140625 6.6458333369140625)" opacity="1" d="M0 9.17L2.75 11.92L14.67 0L9.17 0L0 9.17Z M9.165 8.25L6.875 10.54L9.625 13.29L14.665 8.25L9.165 8.25Z " /><path id="路径 3" fill-rule="evenodd" style="fill:#03A9F4" transform="translate(6.875 12.375)  rotate(0 2.75 2.75)" opacity="1" d="M2.75,5.5L5.5,2.75L2.75,0L0,2.75L2.75,5.5Z " /><path id="路径 4" fill-rule="evenodd" style="fill:#01579B" transform="translate(9.625 15.125)  rotate(0 3.8958333369140625 2.520833336914062)" opacity="1" d="M2.75,0L0,2.75L2.29,5.04L7.79,5.04L2.75,0Z " /><path id="路径 5" fill-rule="evenodd" style="fill:#084994" transform="translate(9.625 15.125)  rotate(0 2.0625 1.375)" opacity="1" d="M4.13,1.38L2.75,0L0,2.75L4.13,1.38Z " /></g></g></g></g></svg>
